X:1
T:Ellen Vannin
M:4/4
L:1/4
K:D
 F/2 F3/2 F F| G3/2 A/2 F2| F/2 F3/2 F F| D3/2 C/2 B,2| B3/2 A/2 G E|\
 A/2 A3/2 F2| F/2 F3/2 F E| D/2D/2 C B,2| E2 E D| F2 B,2| E/2E/2 E D E|\
 F4| E2 E D| F2 B,2| D D/2D/2 C A,| B,4|
